img/device-logo-yellow.svg

<svg width="163" height="35" viewBox="0 0 163 35" fill="none" xmlns="http://www.w3.org/2000/svg">
<path fill-rule="evenodd" clip-rule="evenodd" d="M-0.151001 0.70181V34.3018H13.381C15.5624 34.3552 17.7309 33.9538 19.7487 33.1233C21.7665 32.2927 23.5892 31.0513 25.101 29.4778C26.6506 27.9005 27.8665 26.0271 28.6761 23.9695C29.4857 21.9119 29.8724 19.7122 29.813 17.5018C29.8724 15.2914 29.4857 13.0918 28.6761 11.0341C27.8665 8.97651 26.6506 7.10311 25.101 5.52581C23.5891 3.95251 21.7663 2.71112 19.7486 1.88061C17.7308 1.0501 15.5623 0.648651 13.381 0.70181H-0.151001ZM7.582 26.9098V8.09081H13.382C14.5845 8.04291 15.7838 8.24657 16.903 8.68877C18.0223 9.13097 19.0369 9.80196 19.882 10.6588C20.7304 11.5764 21.3875 12.6539 21.8149 13.8283C22.2422 15.0027 22.4313 16.2505 22.371 17.4988C22.4313 18.7471 22.2423 19.9949 21.8149 21.1693C21.3876 22.3437 20.7305 23.4212 19.882 24.3388C19.0371 25.1959 18.0225 25.867 16.9032 26.3092C15.7839 26.7514 14.5845 26.955 13.382 26.9068H7.582V26.9098ZM42.382 20.9578H54.464V13.6578H42.378V8.09081H55.669V0.70181H34.645V34.3018H55.91V26.9098H42.378V20.9578H42.382ZM78.725 34.3018L89.744 0.70181H81.286L73.795 25.4218L66.304 0.70181H57.847L68.866 34.3018H78.725ZM93.125 34.3018H100.858V0.70181H93.125V34.3018ZM131.74 32.8858C134.233 31.5738 136.321 29.6074 137.781 27.1978L131.111 23.3578C130.381 24.6588 129.279 25.7119 127.946 26.3818C126.505 27.126 124.903 27.5038 123.282 27.4818C121.962 27.5447 120.643 27.3341 119.408 26.8633C118.173 26.3925 117.048 25.6716 116.105 24.7458C115.195 23.779 114.489 22.6391 114.028 21.3941C113.568 20.149 113.362 18.824 113.423 17.4978C113.362 16.1716 113.568 14.8467 114.028 13.6016C114.489 12.3565 115.195 11.2167 116.105 10.2498C117.048 9.32404 118.173 8.60314 119.408 8.13233C120.643 7.66152 121.962 7.45095 123.282 7.51381C124.893 7.4908 126.486 7.86153 127.921 8.59381C129.263 9.27162 130.373 10.3324 131.111 11.6418L137.781 7.80181C136.294 5.39727 134.191 3.4336 131.691 2.11381C129.109 0.720716 126.216 0.00250036 123.282 0.0258102C113.503 -0.24619 105.485 7.71681 105.691 17.4978C105.483 27.2788 113.5 35.2448 123.279 34.9738C126.229 35.0011 129.138 34.2829 131.737 32.8858H131.74ZM149.621 20.9578H161.703V13.6578H149.618V8.09081H162.908V0.70181H141.885V34.3018H163.15V26.9098H149.618V20.9578H149.621Z" fill="#F0C52E"/>
</svg>

<svg width="163" height="35" fill="none" xmlns="http://www.w3.org/2000/svg"><path fill-rule="evenodd" clip-rule="evenodd" d="M-.15.7v33.6h13.53a15.72 15.72 0 0011.72-4.82 16.46 16.46 0 004.71-11.98A16.46 16.46 0 0019.75 1.88 15.72 15.72 0 0013.38.7H-.15zm7.73 26.21V8.09h5.8a8.65 8.65 0 016.5 2.57 9.4 9.4 0 012.5 6.84 9.4 9.4 0 01-2.5 6.84 8.64 8.64 0 01-6.5 2.57h-5.8zm34.8-5.95h12.08v-7.3H42.38V8.09h13.29V.7H34.65v33.6H55.9v-7.39H42.38v-5.95zM78.72 34.3L89.74.7H81.3l-7.5 24.72L66.3.7h-8.45l11.02 33.6h9.85zm14.4 0h7.74V.7h-7.73v33.6zm38.62-1.41a15.5 15.5 0 006.04-5.7l-6.67-3.83a7.48 7.48 0 01-3.16 3.02 9.87 9.87 0 01-4.67 1.1 9.6 9.6 0 01-7.17-2.73 9.91 9.91 0 01-2.69-7.25 9.93 9.93 0 012.69-7.25 9.6 9.6 0 017.17-2.74 9.9 9.9 0 014.64 1.08 7.59 7.59 0 013.2 3.05l6.66-3.84a15.87 15.87 0 00-6.09-5.69 17.42 17.42 0 00-8.4-2.08 17.12 17.12 0 00-17.6 17.47 17.12 17.12 0 0017.59 17.47c2.95.03 5.86-.69 8.46-2.08zm17.88-11.93h12.08v-7.3h-12.08V8.09h13.29V.7h-21.03v33.6h21.27v-7.39h-13.53v-5.95z" fill="#F0C52E"/></svg>
